public/svg/flo.svg

<svg width="363" height="123" viewBox="0 0 363 123" fill="none" xmlns="http://www.w3.org/2000/svg">
<path d="M314.159 28.2757C314.079 28.3316 314.006 28.3958 313.94 28.4672C296.399 22.8027 279.844 30.7111 264.684 42.6968C263.835 42.8884 262.96 43.1073 262.111 43.3536C271.881 31.1489 266.955 13.7998 259.375 0.856318C258.663 -0.37509 256.31 -0.320361 256.064 1.29415C254.203 13.2525 241.451 22.5291 242.929 35.1715C243.112 38.1773 244.412 41.006 246.574 43.1022C248.736 45.1983 251.604 46.4105 254.614 46.5005V46.911C254.716 47.2382 254.905 47.5314 255.161 47.7593C255.251 48.0263 255.402 48.2689 255.601 48.4682C255.8 48.6676 256.043 48.8183 256.31 48.9086L256.967 49.1001C243.75 60.9216 231.764 74.7955 221.393 83.689C216.806 87.5798 211.879 91.0509 206.671 94.0602C204.434 94.6171 202.268 95.4249 200.213 96.4683C210.228 81.4725 201.28 52.2197 198.16 37.5249C198.086 37.2486 197.949 36.9933 197.76 36.7786C197.57 36.564 197.334 36.3958 197.07 36.2873C196.805 36.1788 196.519 36.1327 196.233 36.1528C195.948 36.1729 195.671 36.2585 195.424 36.403C188.583 41.2797 183.214 47.9428 179.903 55.6643C176.592 63.3859 175.468 71.8688 176.652 80.1863C177.199 84.1268 181.577 98.5753 187.379 102.735C170.99 108.247 153.446 109.389 136.48 106.046C127.175 103.995 118.314 100.287 110.32 95.1C119.241 91.8635 126.977 86.007 132.513 78.2982C141.762 65.0263 142.036 44.5029 128.955 33.4202C126.353 31.2121 123.338 29.5433 120.085 28.5108C116.833 27.4782 113.407 27.1025 110.008 27.4055C106.609 27.7085 103.304 28.6842 100.285 30.2757C97.2663 31.8673 94.5939 34.0431 92.4235 36.6766C77.6192 50.9609 81.0124 74.2756 94.4211 88.6694C96.401 90.7824 98.5319 92.7488 100.797 94.5528C90.1007 96.8057 78.9562 95.3572 69.1911 90.4449C59.426 85.5325 51.6199 77.4478 47.0529 67.5165C48.4211 54.9562 47.0529 27.2905 29.6764 26.4696C18.0738 25.8949 17.417 37.7438 19.7157 46.7741C17.723 45.4327 15.4226 44.6187 13.0297 44.4081C10.6369 44.1975 8.22969 44.5973 6.03336 45.5701C3.63971 47.0499 1.80415 49.2815 0.813868 51.9156C-0.176413 54.5498 -0.265539 57.4379 0.560434 60.1281C5.29451 77.8877 32.6591 77.5046 45.8215 71.9222C54.0309 94.7169 81.0398 102.954 104.053 97.125C122.141 109.795 146.906 113.544 168.114 110.999C176.78 109.965 185.273 107.794 193.372 104.541C201.097 114.091 212.096 120.429 224.232 122.325C236.368 124.221 248.776 121.54 259.047 114.803C259.313 114.638 259.532 114.409 259.684 114.136C259.837 113.863 259.916 113.555 259.916 113.243C259.916 112.93 259.837 112.623 259.684 112.35C259.532 112.077 259.313 111.847 259.047 111.683C246.404 102.926 230.314 93.0203 214.853 93.0203C222.769 87.4621 230.104 81.1177 236.744 74.084C242.847 67.6807 249.743 60.4017 257.241 53.4511C257.241 67.927 298.287 66.1209 305.539 66.3946C305.857 66.3918 306.169 66.305 306.444 66.1428C306.718 65.9806 306.944 65.7488 307.099 65.471C307.255 65.1932 307.334 64.8792 307.329 64.5608C307.325 64.2424 307.236 63.931 307.072 63.6581C303.958 56.9625 298.955 51.323 292.679 47.4335C286.402 43.544 279.125 41.5742 271.744 41.7664C284.742 32.8729 299.108 27.7284 314.077 32.4898C308.905 56.6254 347.489 55.695 359.228 65.7378C360.159 66.5314 361.965 66.3946 362.239 64.9442C366.535 38.4827 339.444 14.867 314.159 28.2757ZM12.4914 68.1185C8.33198 65.6557 1.13509 59.3345 4.41884 53.67C5.68949 51.4509 7.77748 49.8165 10.2368 49.116C12.6962 48.4155 15.332 48.7045 17.5812 49.9211C18.963 50.5803 20.2898 51.349 21.5491 52.2197C21.5491 52.5207 21.7954 52.8217 21.9322 53.068C22.0058 53.1992 22.1051 53.3143 22.2242 53.4064C22.3432 53.4984 22.4795 53.5656 22.6251 53.6039C22.7706 53.6422 22.9223 53.6508 23.0713 53.6293C23.2202 53.6077 23.3633 53.5564 23.492 53.4785L24.1761 53.9163C25.6538 54.8193 27.4051 52.6575 26.0643 51.4809C25.1612 50.6873 24.1487 49.8663 23.0815 49.1001C22.077 46.2224 21.5501 43.1998 21.5217 40.1519C21.6859 30.7658 30.6068 27.9746 36.9006 34.679C44.8637 43.1346 44.5627 58.0484 43.3313 68.7753C43.2748 69.0723 43.3163 69.3797 43.4496 69.6511C43.5828 69.9226 43.8006 70.1434 44.0702 70.2803C33.7811 72.6611 22.0143 73.482 12.4914 68.1185ZM95.4336 37.2239C98.3158 34.5252 101.828 32.5914 105.65 31.5988C109.471 30.6062 113.481 30.5866 117.312 31.5417C121.143 32.4968 124.674 34.3961 127.583 37.0665C130.491 39.7368 132.685 43.093 133.963 46.8289C139.573 62.2078 131.664 78.0793 118.858 86.8907C115.138 89.45 111.1 91.5108 106.845 93.0203C88.0451 79.5569 76.0047 58.2946 95.4336 37.2239ZM179.853 75.5344C179.573 66.6368 181.986 57.8619 186.777 50.3589C187.899 48.6349 191.976 41.7938 195.533 42.9705C196.737 43.3809 197.613 54.1079 197.941 56.2149C199.884 68.3922 205.357 91.1322 192.277 99.1774C194.101 91.0957 195.871 83.014 197.586 74.9323C198.078 72.6884 194.658 71.758 194.165 73.9746C192.213 82.7312 190.252 91.4788 188.282 100.217C183.11 95.2642 179.908 77.8603 179.853 75.507V75.5344ZM254.942 113.27C246.019 118.352 235.654 120.305 225.494 118.817C215.334 117.33 205.963 112.487 198.872 105.061L225.935 107.496C228.289 107.715 228.261 104.076 225.935 103.829L200.678 101.421C203.724 99.9071 206.707 98.2561 209.626 96.4683C225.169 94.2791 241.752 103.966 254.942 113.27ZM258.034 30.6837C258.691 28.604 255.517 27.7557 254.778 29.7807C253.034 34.4976 252.776 39.6352 254.039 44.5029C236.307 41.7664 253.081 18.3423 258.253 6.19242C264.437 18.3149 267.584 32.8182 257.35 43.162C256.407 39.0112 256.644 34.6796 258.034 30.6564V30.6837ZM302.529 62.9193C296.755 62.7003 291.008 62.3993 285.235 61.9615C279.461 61.5237 257.87 61.6879 259.895 51.2893L260.907 50.4136L278.475 55.8866C280.555 56.5159 281.431 53.2869 279.379 52.6302L264.082 47.5951L266.025 46.0353C273.108 44.7344 280.42 45.6591 286.957 48.6824C293.494 51.7057 298.933 56.6791 302.529 62.9193ZM359.064 61.5237C345.108 53.3143 314.542 53.4785 316.102 33.4202C319.29 34.6263 322.336 36.177 325.187 38.0448C326.993 39.2215 328.553 36.403 326.856 35.3084C324.276 33.4587 321.527 31.8554 318.647 30.5196C339.717 24.6088 361.089 38.2911 359.064 61.3868V61.5237Z" fill="#F4F4F4"/>
</svg>

<svg xmlns="http://www.w3.org/2000/svg" width="363" height="123" fill="none" xmlns:v="https://vecta.io/nano"><path d="M314.16 28.276c-.08.056-.153.12-.22.19-17.54-5.664-34.096 2.244-49.256 14.23a44.36 44.36 0 0 0-2.573.657c9.77-12.205 4.844-29.554-2.736-42.497-.712-1.23-3.065-1.177-3.31.438-1.86 11.958-14.613 21.235-13.135 33.877a12.07 12.07 0 0 0 11.685 11.329v.4a1.89 1.89 0 0 0 .547.848c.1.267.24.5.44.71a1.83 1.83 0 0 0 .709.44l.657.19c-13.217 11.822-25.203 25.695-35.574 34.59-4.587 3.89-9.514 7.362-14.722 10.37-2.237.557-4.403 1.365-6.458 2.408 10.015-14.996 1.067-44.25-2.053-58.943-.074-.276-.21-.532-.4-.746s-.426-.383-.7-.49-.55-.155-.837-.135a1.86 1.86 0 0 0-.809.25 45.84 45.84 0 0 0-15.521 19.261c-3.31 7.722-4.435 16.204-3.25 24.522.547 3.94 4.925 18.39 10.727 22.55-16.39 5.512-33.933 6.654-50.9 3.31A79.5 79.5 0 0 1 110.32 95.1a47.1 47.1 0 0 0 22.193-16.802c9.25-13.272 9.523-33.795-3.558-44.878-2.602-2.208-5.617-3.877-8.87-4.91s-6.678-1.408-10.077-1.105-6.704 1.28-9.723 2.87a25.75 25.75 0 0 0-7.861 6.401C77.62 50.96 81.012 74.276 94.42 88.67c1.98 2.113 4.11 4.08 6.376 5.883-10.696 2.253-21.84.804-31.606-4.108S51.62 77.448 47.053 67.517c1.368-12.56 0-40.226-17.376-41.047-11.603-.575-12.26 11.274-9.96 20.304-1.993-1.34-4.293-2.155-6.686-2.366a14.2 14.2 0 0 0-6.996 1.162c-2.394 1.48-4.23 3.71-5.22 6.346s-1.08 5.522-.253 8.213c4.734 17.76 32.1 17.376 45.26 11.794 8.21 22.795 35.218 31.032 58.232 25.203 18.088 12.67 42.853 16.42 64.06 13.874a99.35 99.35 0 0 0 25.258-6.458c7.725 9.55 18.724 15.888 30.86 17.784s24.544-.785 34.815-7.522c.266-.165.485-.394.637-.667s.232-.58.232-.893-.08-.62-.232-.893-.37-.503-.637-.667c-12.643-8.757-28.733-18.663-44.194-18.663 7.916-5.558 15.25-11.903 21.89-18.936 6.103-6.403 13-13.682 20.497-20.633 0 14.476 41.046 12.67 48.298 12.944.318-.003.63-.1.905-.252a1.8 1.8 0 0 0 .885-1.582c-.004-.318-.093-.63-.257-.903a37.88 37.88 0 0 0-14.393-16.225c-6.277-3.9-13.554-5.86-20.935-5.667 12.998-8.893 27.364-14.038 42.333-9.277-5.172 24.136 33.412 23.205 45.15 33.248.93.794 2.737.657 3.01-.794 4.296-26.46-22.795-50.077-48.08-36.668zM12.49 68.12C8.332 65.656 1.135 59.335 4.42 53.67c1.27-2.22 3.36-3.854 5.818-4.554s5.095-.41 7.344.805c1.382.66 2.71 1.428 3.968 2.3 0 .3.246.602.383.848a1.12 1.12 0 0 0 .693.536c.146.038.297.047.446.025s.292-.073.42-.15l.684.438c1.478.903 3.23-1.26 1.888-2.435-.903-.794-1.916-1.615-2.983-2.38a27.94 27.94 0 0 1-1.56-8.948c.164-9.386 9.085-12.177 15.38-5.473 7.963 8.456 7.662 23.37 6.43 34.096-.056.297-.015.604.118.876s.35.492.62.63c-10.29 2.38-22.056 3.202-31.58-2.162zm82.942-30.895a23.64 23.64 0 0 1 21.878-5.682c3.83.955 7.362 2.854 10.27 5.525s5.102 6.027 6.38 9.762c5.6 15.38-2.3 31.25-15.105 40.062-3.72 2.56-7.758 4.62-12.013 6.13-18.8-13.463-30.84-34.726-11.41-55.796zm84.42 38.31c-.28-8.898 2.133-17.673 6.924-25.176 1.122-1.724 5.2-8.565 8.756-7.388 1.204.4 2.08 11.137 2.408 13.244 1.943 12.177 7.416 34.917-5.664 42.963l5.31-24.245c.492-2.244-2.928-3.174-3.42-.958l-5.883 26.242c-5.172-4.953-8.374-22.357-8.43-24.7v.027zm75.09 37.736c-8.923 5.082-19.288 7.035-29.448 5.547a46.03 46.03 0 0 1-26.622-13.756l27.063 2.435c2.354.22 2.326-3.42 0-3.667l-25.257-2.408c3.046-1.514 6.03-3.165 8.948-4.953 15.543-2.19 32.126 7.498 45.316 16.802zm3.092-82.586c.657-2.08-2.517-2.928-3.256-.903a24.62 24.62 0 0 0-.739 14.722c-17.732-2.736-.958-26.16 4.214-38.3 6.184 12.122 9.33 26.626-.903 36.97-.943-4.15-.706-8.482.684-12.506v.027zM302.53 62.92c-5.774-.22-11.52-.52-17.294-.958s-27.365-.274-25.34-10.672l1.012-.876 17.568 5.473c2.08.63 2.956-2.6.904-3.256l-15.297-5.035 1.943-1.56a34.86 34.86 0 0 1 20.932 2.647c6.537 3.023 11.976 7.997 15.572 14.237zm56.535-1.396c-13.956-8.21-44.522-8.045-42.962-28.103a46.79 46.79 0 0 1 9.085 4.625c1.806 1.177 3.366-1.642 1.67-2.736-2.58-1.85-5.33-3.453-8.21-4.79 21.07-5.91 42.442 7.772 40.417 30.867v.137z" fill="#f4f4f4"/></svg>
